src/main/resources/icons/structure@20x20.svg

<!-- Copyright 2000-2022 JetBrains s.r.o. and contributors. Use of this source code is governed by the Apache 2.0 license. -->
<svg width="20" height="20" viewBox="0 0 20 20" fill="none" xmlns="http://www.w3.org/2000/svg">
<path fill-rule="evenodd" clip-rule="evenodd" d="M7.25 3.5H4C3.72386 3.5 3.5 3.72386 3.5 4V7.25C3.5 7.52614 3.72386 7.75 4 7.75H7.25C7.52614 7.75 7.75 7.52614 7.75 7.25V4C7.75 3.72386 7.52614 3.5 7.25 3.5ZM4 2C2.89543 2 2 2.89543 2 4V7.25C2 8.35457 2.89543 9.25 4 9.25H7.25C8.35457 9.25 9.25 8.35457 9.25 7.25V4C9.25 2.89543 8.35457 2 7.25 2H4ZM7.25 12.25H4C3.72386 12.25 3.5 12.4739 3.5 12.75V16C3.5 16.2761 3.72386 16.5 4 16.5H7.25C7.52614 16.5 7.75 16.2761 7.75 16V12.75C7.75 12.4739 7.52614 12.25 7.25 12.25ZM4 10.75C2.89543 10.75 2 11.6454 2 12.75V16C2 17.1046 2.89543 18 4 18H7.25C8.35457 18 9.25 17.1046 9.25 16V12.75C9.25 11.6454 8.35457 10.75 7.25 10.75H4ZM12.75 12.25H16C16.2761 12.25 16.5 12.4739 16.5 12.75V16C16.5 16.2761 16.2761 16.5 16 16.5H12.75C12.4739 16.5 12.25 16.2761 12.25 16V12.75C12.25 12.4739 12.4739 12.25 12.75 12.25ZM10.75 12.75C10.75 11.6454 11.6454 10.75 12.75 10.75H16C17.1046 10.75 18 11.6454 18 12.75V16C18 17.1046 17.1046 18 16 18H12.75C11.6454 18 10.75 17.1046 10.75 16V12.75Z" fill="#6C707E"/>
</svg>

<svg xmlns="http://www.w3.org/2000/svg" width="20" height="20" fill="none"><path fill="#6C707E" fill-rule="evenodd" d="M7.25 3.5H4a.5.5 0 0 0-.5.5v3.25a.5.5 0 0 0 .5.5h3.25a.5.5 0 0 0 .5-.5V4a.5.5 0 0 0-.5-.5M4 2a2 2 0 0 0-2 2v3.25a2 2 0 0 0 2 2h3.25a2 2 0 0 0 2-2V4a2 2 0 0 0-2-2zm3.25 10.25H4a.5.5 0 0 0-.5.5V16a.5.5 0 0 0 .5.5h3.25a.5.5 0 0 0 .5-.5v-3.25a.5.5 0 0 0-.5-.5M4 10.75a2 2 0 0 0-2 2V16a2 2 0 0 0 2 2h3.25a2 2 0 0 0 2-2v-3.25a2 2 0 0 0-2-2zm8.75 1.5H16a.5.5 0 0 1 .5.5V16a.5.5 0 0 1-.5.5h-3.25a.5.5 0 0 1-.5-.5v-3.25a.5.5 0 0 1 .5-.5m-2 .5a2 2 0 0 1 2-2H16a2 2 0 0 1 2 2V16a2 2 0 0 1-2 2h-3.25a2 2 0 0 1-2-2z" clip-rule="evenodd"/></svg>
